packages/icons/src/thick-arrow-up.svg

<svg width="15" height="15" viewBox="0 0 15 15" fill="none" xmlns="http://www.w3.org/2000/svg">
  <path
    fill-rule="evenodd"
    clip-rule="evenodd"
    d="M7.5 1C7.66148 1 7.81301 1.07798 7.90687 1.20938L12.9069 8.20938C13.0157 8.36179 13.0303 8.56226 12.9446 8.72879C12.8589 8.89533 12.6873 9 12.5 9H10V11.5C10 11.7761 9.77614 12 9.5 12H5.5C5.22386 12 5 11.7761 5 11.5V9H2.5C2.31271 9 2.14112 8.89533 2.05542 8.72879C1.96972 8.56226 1.98427 8.36179 2.09314 8.20938L7.09314 1.20938C7.18699 1.07798 7.33853 1 7.5 1ZM3.4716 8H5.5C5.77614 8 6 8.22386 6 8.5V11H9V8.5C9 8.22386 9.22386 8 9.5 8H11.5284L7.5 2.36023L3.4716 8Z"
    fill="currentColor"
  />
</svg>

<svg xmlns="http://www.w3.org/2000/svg" width="15" height="15" fill="none"><path fill="currentColor" fill-rule="evenodd" d="M7.5 1a.5.5 0 0 1 .407.21l5 7A.5.5 0 0 1 12.5 9H10v2.5a.5.5 0 0 1-.5.5h-4a.5.5 0 0 1-.5-.5V9H2.5a.5.5 0 0 1-.407-.79l5-7A.5.5 0 0 1 7.5 1M3.472 8H5.5a.5.5 0 0 1 .5.5V11h3V8.5a.5.5 0 0 1 .5-.5h2.028L7.5 2.36z" clip-rule="evenodd"/></svg>
